X:1
T:Liebesscherz
T:Satz: Friedrich Silcher
T:Liebesscherz
T:CPDL   —   Creative Commons Attribution Non Commercial 3.0
C:Friedrich Silcher
Z:CPDL   —   Creative Commons Attribution Non Commercial 3.0
%%score [ ( 1 2 ) ( 3 4 ) ]
L:1/8
Q:1/4=76
M:3/8
K:Eb
V:1 treble-8 nm="Tenor"
V:2 treble-8 
V:3 bass nm="Bass"
V:4 bass 
V:1
"^Bewegung eines Ländlers\nMit Anmut" Bee | d>cB | afd | fe z | Bee | d>cB | afd | e2 z | f>gf | %9
w: 1.  Wo a kleins|Hütt- le steht,|ist a kleins|Güt- le;|wo a kleins|Hütt- le steht,|ist a kleins|Gut;|und wo viel|
w: 2.  Lieb- le ist's|ü- ber- all,|lieb- le auf|Er- de,|lieb- le ist's|ü- ber- all,|lus- tig im|Mai;|wenn es nur|
w: 3. Wenn zu mei'm|Schät- zerl kommst,|tu mer's schön|grü- ße,|wenn zu mei'm|Schät- zerl kommst,|sag em viel|Grüß;|wenn es fragt,|
w: 4.  Und wenn es|freund- le ist,|sag, i sei|g'stor- be,|und wenn es|la- che tut,|sag, i hätt'|g'freit;|wenn's a- ber|
w: 5.  Maid- le, trau|net so wohl,|du bist be-|tro- ge!|Maid- le, trau|net so wohl,|du bist in|G'fohr!|dass i di|
 f>gf | f>gf | f>gf | edc | B !>!a2 | g/f/ e/d/ c/d/ |{f} e2 z |] %16
w: Bu- be sind,|Maid- le sind,|Bu- be sind,|do ist's halt|lieb- le,|do * ist's * halt *|gut.|
w: mög- le wär,|z'ma- che wär,|mög- le wär,|mei müsst du|wer- de,|mei * müsst * du *|sein.|
w: wie es geht,|wie es steht,|wie es geht,|sag, auf zwei|Fü- ße,|sag * auf * zwei *|Füß'.|
w: wei- ne tut,|trau- rig ist,|kla- ge tut,|sag, i komm|mor- ge,|sag, * i * komm *|heut.|
w: gar net mag,|nem- me mag,|gar net mag,|sell ist ver-|lo- ge,|sell * ist * net *|wohr.|
V:2
 BBB | B>BB | ddB | BB x | BBB | B>BB | ddB | B2 x | e>ee | d>dd | c>cc | d>dd | BBc | F B2 | dBB | %15
 B2 x |] %16
V:3
 G,G,G, | F,>E,D, | F,A,F, | A,G, z | G,G,G, | F,>E,D, | F,A,F, | G,2 z | C>CC | B,>B,B, | %10
 =A,>A,A, | B,>B,B, | G,_A,A, | A, !>!F,2 | A,F,A, |{A,} G,2 z |] %16
V:4
 E,E,E, | B,,>B,,B,, | B,,B,,B,, | E,E, x | E,E,E, | B,,>B,,B,, | B,,B,,B,, | E,2 x | =A,>A,A, | %9
 B,>B,B, | F,>F,F, | B,,>B,,B,, | G,F,E, | D, D,2 | B,,B,,B,, | E,2 x |] %16

